natrixBanner.svg

<?xml version="1.0" encoding="UTF-8"?>
<svg width="695px" height="688px" viewBox="0 0 695 688" version="1.1" xmlns="http://www.w3.org/2000/svg" xmlns:xlink="http://www.w3.org/1999/xlink">
    <!-- Generator: Sketch 42 (36781) - http://www.bohemiancoding.com/sketch -->
    <title>Artboard</title>
    <desc>Created with Sketch.</desc>
    <defs></defs>
    <g id="Page-1" stroke="none" stroke-width="1" fill="none" fill-rule="evenodd">
        <g id="Artboard">
            <path d="M311.756787,69.2054111 C325.651203,69.2054111 365.432478,62.6189091 382.419514,60.8119271 C399.40655,59.0049451 409.745383,59.4520373 441.128518,55.9770275 C472.511654,52.5020177 478.760034,53.9919601 508.224523,57.4765531 C527.838738,59.7962117 547.170761,65.2613042 563.355924,73.1921442 C579.541088,81.1229842 575.957217,80.8971545 587.274827,88.2617044 C592.876764,91.9069748 596.584073,95.8052256 598.773573,99.7583937 C605.424021,111.765858 598.071208,124.279987 587.274827,131.75041 C572.923997,141.680289 570.310542,143.175925 541.772526,153.140252 C513.23451,163.104578 505.234755,165.934581 483.063522,169.92722 C460.892288,173.919858 426.87921,178.320704 407.580516,178.320704 C388.281822,178.320704 366.68786,177.733992 348.871512,174.761973 C329.056462,171.456542 311.756787,164.634565 311.756787,164.634565" id="Path" stroke="#000000" stroke-width="4"></path>
            <ellipse id="Oval" stroke="#000000" stroke-width="3" fill="#000000" cx="439.919665" cy="96.6421963" rx="32.7093024" ry="32.3149136"></ellipse>
            <ellipse id="Oval" stroke="#F8E81C" stroke-width="3" fill="#000000" cx="440.060484" cy="99.784619" rx="18.6610764" ry="18.675502"></ellipse>
            <path d="M517.562062,160.344764 C553.101123,149.83635 568.89352,145.339289 570.834333,144.826123 C572.775145,144.312957 584.658067,143.440469 584.658067,147.301875 C584.658067,151.163282 579.573564,159.706871 567.884066,168.738248 C556.194568,177.769625 551.023442,179.117199 534.336064,185.525216 C517.648686,191.933233 513.358163,192.748911 492.401061,198.051605 C471.443958,203.354298 474.966952,203.978057 446.342,206.373204 C417.717048,208.768351 424.803609,208.518856 391.757053,210.705668 C358.710498,212.892481 354.299358,210.705668 307.887047,210.705668" id="Path-2" stroke="#000000" stroke-width="4"></path>
            <path d="M463.971002,76.3591218 C463.971002,76.3591218 474.501763,74.1712474 477.786153,71.4626333 C481.070544,68.7540193 493.273543,68.2000137 493.273543,68.2000137 C493.273543,68.2000137 499.725983,73.3140101 500.992948,76.847875 C502.259912,80.3817399 500.531706,95.3075859 503.126715,99.0375271 C503.698191,99.8589396 497.55669,106.185801 496.196127,111.069513 C494.835563,115.953224 494.865466,120.924568 493.80283,123.51869 C491.748328,128.534168 485.072156,129.038275 480.173057,129.153426 C475.273959,129.268577 463.706541,124.891549 463.971002,121.468997 C464.235463,118.046445 472.912207,108.209966 472.240149,99.0375271 C471.56809,89.8650877 463.971002,76.3591218 463.971002,76.3591218 Z" id="Path-3" stroke="#000000" stroke-width="4" fill="#4990E2"></path>
            <path d="M413.872558,72.2371235 C414.413351,70.2514036 401.955936,67.1896589 397.375176,68.5279727 C392.794417,69.8662865 387.078376,73.9746284 386.099067,78.1597377 C385.119759,82.3448471 382.298175,86.701404 380.562012,91.1155365 C378.825849,95.529669 382.659982,113.595626 384.587915,116.054745 C386.515849,118.513865 400.077862,127.734924 405.692904,130.069936 C411.307946,132.404948 423.486655,131.001382 420.351846,132.440773 C417.217037,133.880164 423.642545,129.327498 423.812665,127.305026 C423.960968,125.541932 413.216886,118.803023 412.012384,116.054745 C410.807881,113.306468 403.463776,95.5565376 405.692904,88.0525124 C407.922032,80.5484871 412.694651,76.5622417 413.872558,72.2371235 Z" id="Path-4" stroke="#000000" stroke-width="4" fill="#7ED321"></path>
            <path d="M313.0467,83.6707838 C313.0467,83.6707838 336.236874,77.236386 340.792064,77.236386 C345.347254,77.236386 344.102024,77.236386 350.473921,77.8351727 C356.845817,78.4339593 373.853309,87.6319879 375.388752,88.9242412 C376.924195,90.2164944 381.092008,90.2164944 381.092008,90.2164944 C381.829785,95.1098801 380.354231,97.3218724 381.092008,102.215258 C381.829785,107.108644 384.822585,114.959946 384.822585,114.959946 C384.822585,114.959946 372.822862,115.77752 370.575311,115.77752 C368.32776,115.77752 362.522226,116.295701 358.576866,115.627824 C354.631506,114.959946 349.351424,112.569917 338.210833,109.352079 C327.070242,106.13424 313.095282,107.78858 313.095282,107.78858 L313.0467,83.6707838 Z" id="Path-5" stroke="#000000" stroke-width="4" fill="#D0011B"></path>
            <path d="M357.695239,118.940134 C354.945249,121.638512 355.197108,119.801209 350.537083,126.071837 C347.874304,129.654927 339.744334,143.666346 334.398951,154.872452 C330.389589,163.277713 328.525658,170.030199 328.525658,170.030199 L335.82061,172.191205 C335.82061,172.191205 359.481262,136.673431 362.672324,132.342464 C365.863386,128.011496 368.848614,123.166186 368.848614,123.166186 C368.848614,123.166186 378.616128,117.592864 378.616128,117.592864 C378.616128,117.592864 360.445228,116.241755 357.695239,118.940134 Z" id="Path-6" stroke="#000000" stroke-width="4" fill="#000000"></path>
            <path d="M407.099707,131.102887 C398.595321,142.163808 395.601144,149.76891 395.601144,160.715959 C395.601144,171.663007 398.146578,176.206365 398.146578,176.206365 C398.146578,176.206365 397.859562,174.526436 399.625769,170.753312 C401.391975,166.980189 404.289629,169.074663 405.678047,165.246522 C406.226869,163.733313 406.013007,153.185065 409.035311,147.851002 C409.630888,146.799868 412.626408,141.365243 415.955671,137.524491 C419.284934,133.683738 421.959368,131.102887 421.959368,131.102887 C421.959368,131.102887 417.90759,131.521357 414.091661,131.102887 C410.275732,130.684418 408.549767,129.216919 407.099707,131.102887 Z" id="Path-7" stroke="#000000" fill="#000000"></path>
            <path d="M444.877565,132.430254 C444.877565,133.888836 440.748105,136.592333 440.748105,141.041011 C440.748105,145.489688 443.492981,161.728578 445.198461,165.10507 C446.90394,168.481561 448.248891,170.510783 450.314899,170.510783 C452.380907,170.510783 456.314761,171.538188 454.932734,168.321629 C453.550708,165.10507 451.638116,161.857803 451.638116,153.33405 C451.638116,144.810296 459.418887,130.417665 459.418887,128.154303 C459.418887,125.89094 444.877565,130.971671 444.877565,132.430254 Z" id="Path-8" stroke="#000000" fill="#000000"></path>
            <path d="M483.31524,129.843289 C487.176221,136.573242 488.611943,138.558962 488.611943,139.908791 C488.611943,141.25862 488.02129,151.242236 489.37519,153.857449 C490.72909,156.472663 490.573117,161.062081 492.541961,162.628139 C494.510806,164.194196 496.050084,166.92584 497.572742,161.380666 C499.0954,155.835492 496.194551,159.318179 496.883647,154.196506 C497.572742,149.074833 504.516115,142.008382 502.925698,140.045693 C501.33528,138.083003 498.603189,139.391889 496.658636,136.240583 C494.714082,133.089276 492.232571,125.010774 492.232571,126.464239 C492.232571,127.917704 488.402274,128.914402 488.402274,128.914402 C488.402274,128.914402 487.176221,129.843289 483.31524,129.843289 Z" id="Path-9" stroke="#000000" fill="#000000"></path>
            <polyline id="Path-10" stroke="#000000" stroke-width="4" points="493.634546 126.063362 510.61519 127.60383 519.210346 123.709158 556.748794 124.746799 562.352329 134.611426 562.095357 144.501641"></polyline>
            <polyline id="Path-11" stroke="#000000" stroke-width="4" points="313.0467 191.058721 325.252257 193.937503 336.42481 199.277963 374.249635 201.624491 383.251345 203.752231 447.491925 196.372313 473.395013 192.377843 500.758115 185.526341 530.964535 173.376602 538.765761 173.8065 545.218201 176.229795 561.286017 166.441936 563.413392 146.945544"></polyline>
            <polyline id="Path-12" stroke="#000000" stroke-width="4" points="353.995599 175.345571 327.125987 195.10809 334.489976 200.014814 326.99814 205.444837 323.366006 210.758429"></polyline>
            <polyline id="Path-13" stroke="#000000" stroke-width="4" points="395.377782 176.636482 374.610309 200.673672 382.722204 203.393801 362.063401 211.10254"></polyline>
            <path d="M446.768295,174.054661 C446.768295,174.054661 443.327932,181.364209 443.327932,187.253557 C443.327932,193.142905 446.260743,197.471314 446.260743,197.471314 L469.009845,193.774958 L464.413744,199.119257 L446.260743,205.890152" id="Path-14" stroke="#000000" stroke-width="4"></path>
            <path d="M550.295636,153.400096 C552.408948,161.152336 550.417091,168.703701 550.417091,168.703701 L540.009064,176.027323 L543.835525,178.242066 L456.227063,207.052917" id="Path-15" stroke="#000000" stroke-width="4"></path>
            <path d="M498.794199,165.018289 C498.794199,169.533498 502.072197,185.073804 502.072197,185.073804" id="Path-16" stroke="#000000" stroke-width="4"></path>
            <path d="M531.639899,173.22714 C531.639899,173.22714 534.785405,165.990521 533.810741,163.789852 C532.836077,161.589183 514.273157,125.734912 514.273157,125.734912 L520.411093,121.902934 L521.156441,100.093281 L532.174299,90.1454893 L554.139699,91.1204369 L575.578369,98.8765155 L574.109406,106.52512 L558.156653,122.377613" id="Path-17" stroke="#000000" stroke-width="4"></path>
            <path d="M576.797283,100.212302 L582.437895,96.4391788 L583.31109,90.3540732 C583.31109,90.3540732 563.799075,74.1407727 550.710095,72.596466 C534.9261,59.8991179 498.884741,56.5878788 492.056431,63.5097504 C484.37538,61.8925146 464.881264,56.5878788 460.543414,56.5878788 C456.205564,56.5878788 427.38117,56.2884855 414.95316,59.8991179 C402.525149,63.5097504 399.470883,68.5930398 399.470883,68.5930398" id="Path-18" stroke="#000000" stroke-width="4"></path>
            <path d="M502.663938,97.9907394 C506.862435,97.9907394 519.032195,100.75565 519.032195,100.75565 L531.70695,90.770754 L531.152094,85.8525148 C531.152094,85.8525148 536.932058,74.3373866 549.040451,72.0727447" id="Path-19" stroke="#000000" stroke-width="4"></path>
            <path d="M492.344633,63.0363723 L494.092302,67.5656561" id="Path-20" stroke="#000000" stroke-width="4"></path>
            <path d="M333.480492,79.4381342 C325.068157,70.7275794 313.0467,72.1605731 313.0467,72.1605731" id="Path-21" stroke="#000000" stroke-width="4"></path>
            <text id="NATRIX" font-family="Roboto-Regular, Roboto" font-size="64" font-weight="normal">
                <tspan x="76" y="136" fill="#B8E986">N</tspan>
                <tspan x="122.1875" y="136" fill="#000000">ATRIX</tspan>
            </text>
            <ellipse id="Oval-2" stroke="#000000" stroke-width="4" fill="#000000" cx="543.120956" cy="104.605739" rx="6.9192755" ry="6.71478725"></ellipse>
            <text id="Python-for-Event-bas" font-family="Roboto-Regular, Roboto" font-size="13" font-weight="normal" fill="#B8E986">
                <tspan x="76" y="165">Python for Event-based programming</tspan>
            </text>
        </g>
    </g>
</svg>

<?xml version="1.0" encoding="UTF-8" standalone="no"?>
<svg
   xmlns:dc="http://purl.org/dc/elements/1.1/"
   xmlns:cc="http://creativecommons.org/ns#"
   xmlns:rdf="http://www.w3.org/1999/02/22-rdf-syntax-ns#"
   xmlns:svg="http://www.w3.org/2000/svg"
   xmlns="http://www.w3.org/2000/svg"
   xmlns:sodipodi="http://sodipodi.sourceforge.net/DTD/sodipodi-0.dtd"
   xmlns:inkscape="http://www.inkscape.org/namespaces/inkscape"
   width="526.01019"
   height="161.66777"
   viewBox="0 0 526.01019 161.66777"
   version="1.1"
   id="svg43"
   sodipodi:docname="natrixBanner.svg"
   inkscape:version="0.92.2 2405546, 2018-03-11">
  <metadata
     id="metadata47">
    <rdf:RDF>
      <cc:Work
         rdf:about="">
        <dc:format>image/svg+xml</dc:format>
        <dc:type
           rdf:resource="http://purl.org/dc/dcmitype/StillImage" />
      </cc:Work>
    </rdf:RDF>
  </metadata>
  <sodipodi:namedview
     pagecolor="#ffffff"
     bordercolor="#666666"
     borderopacity="1"
     objecttolerance="10"
     gridtolerance="10"
     guidetolerance="10"
     inkscape:pageopacity="0"
     inkscape:pageshadow="2"
     inkscape:window-width="640"
     inkscape:window-height="480"
     id="namedview45"
     showgrid="false"
     inkscape:zoom="0.34302326"
     inkscape:cx="270.22412"
     inkscape:cy="-13.712556"
     inkscape:window-x="0"
     inkscape:window-y="34"
     inkscape:window-maximized="0"
     inkscape:current-layer="svg43" />
  <!-- Generator: Sketch 42 (36781) - http://www.bohemiancoding.com/sketch -->
  <title
     id="title2">Artboard</title>
  <desc
     id="desc4">Created with Sketch.</desc>
  <defs
     id="defs6" />
  <g
     id="Page-1"
     style="fill:none;fill-rule:evenodd;stroke:none;stroke-width:1"
     transform="translate(-77.275879,-52.009497)">
    <g
       id="Artboard">
      <path
         d="m 311.75679,69.205411 c 13.89441,0 53.67569,-6.586502 70.66272,-8.393484 16.98704,-1.806982 27.32587,-1.35989 58.70901,-4.8349 31.38313,-3.475009 37.63151,-1.985067 67.096,1.499526 19.61422,2.319659 38.94624,7.784751 55.1314,15.715591 16.18517,7.93084 12.6013,7.70501 23.91891,15.06956 5.60193,3.645271 9.30924,7.543522 11.49874,11.49669 6.65045,12.007466 -0.70236,24.521596 -11.49874,31.992016 -14.35083,9.92988 -16.96429,11.42551 -45.5023,21.38984 -28.53802,9.96433 -36.53778,12.79433 -58.70901,16.78697 -22.17123,3.99264 -56.18431,8.39348 -75.483,8.39348 -19.2987,0 -40.89266,-0.58671 -58.70901,-3.55873 -19.81505,-3.30543 -37.11472,-10.12741 -37.11472,-10.12741"
         id="Path"
         inkscape:connector-curvature="0"
         style="stroke:#000000;stroke-width:4" />
      <ellipse
         id="Oval"
         cx="439.91968"
         cy="96.642197"
         rx="32.709301"
         ry="32.314915"
         style="fill:#000000;stroke:#000000;stroke-width:3" />
      <ellipse
         id="ellipse10"
         cx="440.06049"
         cy="99.784622"
         rx="18.661076"
         ry="18.675503"
         style="fill:#000000;stroke:#f8e81c;stroke-width:3" />
      <path
         d="m 517.56206,160.34476 c 35.53906,-10.50841 51.33146,-15.00547 53.27227,-15.51864 1.94081,-0.51316 13.82374,-1.38565 13.82374,2.47575 0,3.86141 -5.08451,12.405 -16.774,21.43638 -11.6895,9.03137 -16.86063,10.37895 -33.54801,16.78697 -16.68737,6.40801 -20.9779,7.22369 -41.935,12.52638 -20.9571,5.3027 -17.43411,5.92646 -46.05906,8.3216 -28.62495,2.39515 -21.53839,2.14566 -54.58495,4.33247 -33.04655,2.18681 -37.45769,0 -83.87,0"
         id="Path-2"
         inkscape:connector-curvature="0"
         style="stroke:#000000;stroke-width:4" />
      <path
         d="m 463.971,76.359122 c 0,0 10.53076,-2.187875 13.81515,-4.896489 3.28439,-2.708614 15.48739,-3.262619 15.48739,-3.262619 0,0 6.45244,5.113996 7.71941,8.647861 1.26696,3.533865 -0.46124,18.459711 2.13376,22.189652 0.57148,0.821413 -5.57002,7.148273 -6.93058,12.031983 -1.36057,4.88371 -1.33066,9.85506 -2.3933,12.44918 -2.0545,5.01548 -8.73067,5.51958 -13.62977,5.63474 -4.8991,0.11515 -16.46652,-4.26188 -16.20206,-7.68443 0.26446,-3.42255 8.94121,-13.25903 8.26915,-22.431473 C 471.56809,89.865088 463.971,76.359122 463.971,76.359122 Z"
         id="Path-3"
         inkscape:connector-curvature="0"
         style="fill:#4990e2;stroke:#000000;stroke-width:4" />
      <path
         d="m 413.87256,72.237123 c 0.54079,-1.985719 -11.91662,-5.047464 -16.49738,-3.70915 -4.58076,1.338313 -10.2968,5.446655 -11.27611,9.631765 -0.97931,4.185109 -3.80089,8.541666 -5.53706,12.955799 -1.73616,4.414132 2.09797,22.480093 4.0259,24.939203 1.92794,2.45912 15.48995,11.68018 21.10499,14.0152 5.61505,2.33501 17.79375,0.93144 14.65895,2.37083 -3.13481,1.43939 3.29069,-3.11327 3.46081,-5.13574 0.14831,-1.7631 -10.59577,-8.50201 -11.80028,-11.25029 -1.2045,-2.74827 -8.5486,-20.498202 -6.31948,-28.002228 2.22913,-7.504025 7.00175,-11.49027 8.17966,-15.815389 z"
         id="Path-4"
         inkscape:connector-curvature="0"
         style="fill:#7ed321;stroke:#000000;stroke-width:4" />
      <path
         d="m 313.0467,83.670784 c 0,0 23.19017,-6.434398 27.74536,-6.434398 4.55519,0 3.30996,0 9.68186,0.598787 6.3719,0.598786 23.37939,9.796815 24.91483,11.089068 1.53544,1.292253 5.70326,1.292253 5.70326,1.292253 0.73778,4.893386 -0.73778,7.105378 0,11.998766 0.73778,4.89338 3.73057,12.74469 3.73057,12.74469 0,0 -11.99972,0.81757 -14.24727,0.81757 -2.24755,0 -8.05308,0.51818 -11.99844,-0.1497 -3.94536,-0.66787 -9.22545,-3.0579 -20.36604,-6.27574 -11.14059,-3.21784 -25.11555,-1.5635 -25.11555,-1.5635 z"
         id="Path-5"
         inkscape:connector-curvature="0"
         style="fill:#d0011b;stroke:#000000;stroke-width:4" />
      <path
         d="m 357.69524,118.94013 c -2.74999,2.69838 -2.49813,0.86108 -7.15816,7.13171 -2.66278,3.58309 -10.79275,17.59451 -16.13813,28.80061 -4.00936,8.40526 -5.87329,15.15775 -5.87329,15.15775 l 7.29495,2.161 c 0,0 23.66065,-35.51777 26.85171,-39.84874 3.19107,-4.33096 6.17629,-9.17627 6.17629,-9.17627 0,0 9.76752,-5.57333 9.76752,-5.57333 0,0 -18.1709,-1.35111 -20.92089,1.34727 z"
         id="Path-6"
         inkscape:connector-curvature="0"
         style="fill:#000000;stroke:#000000;stroke-width:4" />
      <path
         d="m 407.09971,131.10289 c -8.50439,11.06092 -11.49857,18.66602 -11.49857,29.61307 0,10.94705 2.54544,15.4904 2.54544,15.4904 0,0 -0.28702,-1.67992 1.47919,-5.45305 1.7662,-3.77312 4.66386,-1.67865 6.05228,-5.50679 0.54882,-1.51321 0.33496,-12.06146 3.35726,-17.39552 0.59558,-1.05113 3.5911,-6.48576 6.92036,-10.32651 3.32926,-3.84075 6.0037,-6.4216 6.0037,-6.4216 0,0 -4.05178,0.41847 -7.86771,0 -3.81593,-0.41847 -5.54189,-1.88597 -6.99195,0 z"
         id="Path-7"
         inkscape:connector-curvature="0"
         style="fill:#000000;stroke:#000000" />
      <path
         d="m 444.87756,132.43025 c 0,1.45859 -4.12946,4.16208 -4.12946,8.61076 0,4.44868 2.74488,20.68757 4.45036,24.06406 1.70548,3.37649 3.05043,5.40571 5.11644,5.40571 2.06601,0 5.99986,1.02741 4.61783,-2.18915 -1.38202,-3.21656 -3.29461,-6.46383 -3.29461,-14.98758 0,-8.52375 7.78077,-22.91639 7.78077,-25.17975 0,-2.26336 -14.54133,2.81737 -14.54133,4.27595 z"
         id="Path-8"
         inkscape:connector-curvature="0"
         style="fill:#000000;stroke:#000000" />
      <path
         d="m 483.31524,129.84329 c 3.86098,6.72995 5.2967,8.71567 5.2967,10.0655 0,1.34983 -0.59065,11.33345 0.76325,13.94866 1.3539,2.61521 1.19793,7.20463 3.16677,8.77069 1.96885,1.56606 3.50812,4.2977 5.03078,-1.24747 1.52266,-5.54518 -1.37819,-2.06249 -0.68909,-7.18416 0.68909,-5.12168 7.63247,-12.18813 6.04205,-14.15082 -1.59042,-1.96269 -4.32251,-0.6538 -6.26706,-3.80511 -1.94456,-3.1513 -4.42607,-11.22981 -4.42607,-9.77634 0,1.45346 -3.8303,2.45016 -3.8303,2.45016 0,0 -1.22605,0.92889 -5.08703,0.92889 z"
         id="Path-9"
         inkscape:connector-curvature="0"
         style="fill:#000000;stroke:#000000" />
      <polyline
         id="Path-10"
         points="493.634546 126.063362 510.61519 127.60383 519.210346 123.709158 556.748794 124.746799 562.352329 134.611426 562.095357 144.501641"
         style="stroke:#000000;stroke-width:4" />
      <polyline
         id="Path-11"
         points="313.0467 191.058721 325.252257 193.937503 336.42481 199.277963 374.249635 201.624491 383.251345 203.752231 447.491925 196.372313 473.395013 192.377843 500.758115 185.526341 530.964535 173.376602 538.765761 173.8065 545.218201 176.229795 561.286017 166.441936 563.413392 146.945544"
         style="stroke:#000000;stroke-width:4" />
      <polyline
         id="Path-12"
         points="353.995599 175.345571 327.125987 195.10809 334.489976 200.014814 326.99814 205.444837 323.366006 210.758429"
         style="stroke:#000000;stroke-width:4" />
      <polyline
         id="Path-13"
         points="395.377782 176.636482 374.610309 200.673672 382.722204 203.393801 362.063401 211.10254"
         style="stroke:#000000;stroke-width:4" />
      <path
         d="m 446.7683,174.05466 c 0,0 -3.44037,7.30955 -3.44037,13.1989 0,5.88935 2.93281,10.21775 2.93281,10.21775 l 22.7491,-3.69635 -4.5961,5.3443 -18.153,6.77089"
         id="Path-14"
         inkscape:connector-curvature="0"
         style="stroke:#000000;stroke-width:4" />
      <path
         d="m 550.29564,153.4001 c 2.11331,7.75224 0.12145,15.3036 0.12145,15.3036 l -10.40803,7.32362 3.82646,2.21475 -87.60846,28.81085"
         id="Path-15"
         inkscape:connector-curvature="0"
         style="stroke:#000000;stroke-width:4" />
      <path
         d="m 498.7942,165.01829 c 0,4.51521 3.278,20.05551 3.278,20.05551"
         id="Path-16"
         inkscape:connector-curvature="0"
         style="stroke:#000000;stroke-width:4" />
      <path
         d="m 531.6399,173.22714 c 0,0 3.1455,-7.23662 2.17084,-9.43729 -0.97466,-2.20067 -19.53758,-38.05494 -19.53758,-38.05494 l 6.13793,-3.83198 0.74535,-21.80965 11.01786,-9.947791 21.9654,0.974948 21.43867,7.756078 -1.46896,7.648605 -15.95276,15.85249"
         id="Path-17"
         inkscape:connector-curvature="0"
         style="stroke:#000000;stroke-width:4" />
      <path
         d="m 576.79728,100.2123 5.64062,-3.773121 0.87319,-6.085106 c 0,0 -19.51201,-16.2133 -32.60099,-17.757607 -15.784,-12.697348 -51.82536,-16.008587 -58.65367,-9.086716 -7.68105,-1.617235 -27.17517,-6.921871 -31.51302,-6.921871 -4.33785,0 -33.16224,-0.299394 -45.59025,3.311239 -12.42801,3.610632 -15.48228,8.693922 -15.48228,8.693922"
         id="Path-18"
         inkscape:connector-curvature="0"
         style="stroke:#000000;stroke-width:4" />
      <path
         d="m 502.66394,97.990739 c 4.19849,0 16.36825,2.764911 16.36825,2.764911 l 12.67476,-9.984896 -0.55486,-4.918239 c 0,0 5.77997,-11.515128 17.88836,-13.77977"
         id="Path-19"
         inkscape:connector-curvature="0"
         style="stroke:#000000;stroke-width:4" />
      <path
         d="m 492.34463,63.036372 1.74767,4.529284"
         id="Path-20"
         inkscape:connector-curvature="0"
         style="stroke:#000000;stroke-width:4" />
      <path
         d="M 333.48049,79.438134 C 325.06816,70.727579 313.0467,72.160573 313.0467,72.160573"
         id="Path-21"
         inkscape:connector-curvature="0"
         style="stroke:#000000;stroke-width:4" />
      <text
         id="NATRIX"
         font-size="64"
         font-weight="normal"
         style="font-weight:normal;font-size:64px;font-family:Roboto-Regular, Roboto">
        <tspan
           x="76"
           y="136"
           id="tspan32"
           style="fill:#b8e986">N</tspan>
        <tspan
           x="122.1875"
           y="136"
           id="tspan34"
           style="fill:#000000">ATRIX</tspan>
      </text>
      <ellipse
         id="Oval-2"
         cx="543.12097"
         cy="104.60574"
         rx="6.9192753"
         ry="6.7147875"
         style="fill:#000000;stroke:#000000;stroke-width:4" />
      <text
         id="Python-for-Event-bas"
         font-size="13"
         font-weight="normal"
         style="font-weight:normal;font-size:13px;font-family:Roboto-Regular, Roboto;fill:#b8e986">
        <tspan
           x="76"
           y="165"
           id="tspan38">Python for Event-based programming</tspan>
      </text>
    </g>
  </g>
</svg>
